templates/icons/soundcloud.svg

<svg version="1.1" xmlns="http://www.w3.org/2000/svg" xmlns:xlink="http://www.w3.org/1999/xlink">
<symbol id="icon-soundcloud" viewBox="0 0 16 32">
<title>soundcloud</title>
<g transform="matrix(0.0234375 0 0 0.0234375 0.50000024 -0)">
<path d="M111.4 256.3L117.200005 321.3L111.4 389.59998C 111.1 392.09998 109.200005 393.99997 107 393.99997C 104.799995 393.99997 102.8 392.09998 102.8 389.59998L102.8 389.59998L97.200005 321.3L102.8 256.3C 102.8 254.09999 104.700005 252.09999 107 252.09999C 109.2 252.09999 111.1 254.09999 111.4 256.3zM132.8 210.69998C 130 210.69998 128.1 212.89998 127.8 215.69998L127.8 215.69998L122.8 321.3L127.8 389.59998C 128.1 392.39996 130 394.59998 132.8 394.59998C 135.3 394.59998 137.5 392.39996 137.5 389.59998L137.5 389.59998L143.3 321.3L137.5 215.69998C 137.5 212.89998 135.3 210.69998 132.8 210.69998zM158.3 186.59998C 155.2 186.59998 153 188.79997 152.7 191.89998L152.7 191.89998L148.3 321.89996L152.7 389.69995C 153 392.79996 155.2 394.99994 158.3 394.99994C 161.1 394.99994 163.6 392.79993 163.6 389.69995L163.6 389.69995L168.90001 321.89996L163.6 191.89996C 163.6 188.79996 161.1 186.59996 158.3 186.59996zM7.2 283.2C 5.7999997 283.2 5 284.30002 4.7 285.7L4.7 285.7L0 321.3L4.7 356.3C 5 357.69998 5.7999997 358.8 7.2 358.8C 8.6 358.8 9.4 357.69998 9.7 356.3L9.7 356.3L15.299999 321.3L9.699999 285.69998C 9.399999 284.3 8.599998 283.19998 7.199999 283.19998zM30.8 261.30002C 29.4 261.30002 28.3 262.40002 28.3 263.80002L28.3 263.80002L21.9 321.30002L28.3 377.40002C 28.3 379.10004 29.4 380.2 30.8 380.2C 32.199997 380.2 33.3 379.1 33.6 377.7L33.6 377.7L40.8 321.30002L33.6 263.80002C 33.3 262.40002 32.199997 261.30002 30.8 261.30002zM56.1 249.90002C 54.399998 249.90002 53 251.30002 52.8 253.20003L52.8 253.20003L47 321.3L52.8 387.09998C 53.1 388.8 54.5 390.19998 56.1 390.19998C 57.8 390.19998 59.199997 388.8 59.199997 387.09998L59.199997 387.09998L66.1 321.3L59.199997 253.19998C 59.199997 251.29999 57.799995 249.89998 56.1 249.89998zM81.399994 247.70003C 79.49999 247.70003 77.799995 249.10002 77.799995 251.30003L77.799995 251.30003L71.99999 321.30005L77.799995 389.10004C 77.799995 391.30005 79.49999 392.70004 81.399994 392.70004C 83.299995 392.70004 84.99999 391.30005 85.299995 389.10004L85.299995 389.10004L91.7 321.30005L85.299995 251.30005C 84.99999 249.10005 83.299995 247.70004 81.399994 247.70004zM322.8 136.80002C 321.69998 136.00002 320 135.40002 318.59998 135.40002C 316.39996 135.40002 314.39996 136.20003 312.99997 137.30002C 311.09998 139.00002 309.89996 141.50002 309.69998 144.00002L309.69998 144.00002L309.69998 144.80002L306.4 321.5L308.1 354L309.80002 385.7C 310.1 390.40002 314.00003 394.30002 318.7 394.30002C 323.4 394.30002 327.30002 390.40002 327.30002 385.7L327.30002 385.7L331.2 321.5L327.30002 144C 326.90002 141 325.30002 138.2 322.80002 136.8zM296.09998 152.10002C 294.69998 151.30002 293.3 150.70003 291.69998 150.70003C 290.09998 150.70003 288.59998 151.30003 287.3 152.10002C 285.09998 153.50002 283.69998 156.00002 283.69998 158.80002L283.69998 158.80002L283.4 160.50002L280.6 321.30002C 280.6 321.30002 280.6 321.6 283.7 386.90002L283.7 386.90002L283.7 387.2C 283.7 388.90002 284.30002 390.5 285.40002 391.90002C 287.10004 393.80002 289.30002 395.00003 291.80002 395.00003C 294.00003 395.00003 296.00003 393.90002 297.40002 392.50003C 299.10004 391.10004 299.90002 389.20004 299.90002 386.90002L299.90002 386.90002L300.2 380.2L303.30002 321.6L300.00003 158.8C 299.70004 156 298.30002 153.5 296.10004 152.1zM184.69998 174.60002C 181.59998 174.60002 178.89998 177.40002 178.89998 180.70003L178.89998 180.70003L174.49998 321.30005L178.89998 388.50006C 179.19998 391.80005 181.69998 394.30005 184.69998 394.30005C 187.99998 394.30005 190.49998 391.80005 190.79999 388.50006L190.79999 388.50006L195.79999 321.30005L190.79999 180.70004C 190.59999 177.40004 188.09999 174.60004 184.69998 174.60004zM561.4 237.40002C 550.60004 237.40002 540.30005 239.60002 530.80005 243.50003C 524.4 172.70003 465.00006 117.10003 392.50006 117.10003C 374.70007 117.10003 357.50006 120.40003 342.20007 126.50003C 336.10007 128.70003 334.4001 130.90002 334.4001 135.70003L334.4001 135.70003L334.4001 385.40002C 334.4001 390.40002 338.30008 394.00003 343.0001 394.60004L343.0001 394.60004L561.3001 394.60004C 604.6001 394.60004 639.9001 359.60004 639.9001 316.30005C 640.00006 272.70004 604.7001 237.40005 561.4001 237.40005zM264.7 177.10002C 260.5 177.10002 257.2 180.40002 256.90002 184.90002L256.90002 184.90002L253.60002 321.60004L256.90002 387.20004C 257.2 391.40005 260.50003 394.70004 264.7 394.70004C 268.90002 394.70004 272.2 391.40005 272.2 387.20004L272.2 387.20004L276.1 321.60004L272.2 184.90004C 271.90002 180.40004 268.90002 177.10004 264.7 177.10004zM211.1 169.30002C 207.8 169.30002 204.70001 172.40002 204.70001 176.00002L204.70001 176.00002L200.80002 321.30002L204.70001 388.2C 205.00002 391.80002 207.80002 394.6 211.1 394.6C 214.70001 394.6 217.5 391.80002 217.8 388.2L217.8 388.2L222.2 321.30002L217.8 176.00002C 217.5 172.40001 214.7 169.30002 211.1 169.30002zM237.8 172.70001C 233.90001 172.70001 230.90001 175.80002 230.90001 179.6L230.90001 179.6L227 321.3L230.9 387.69998C 231.2 391.59998 234 394.59998 237.79999 394.59998C 241.59998 394.59998 244.69998 391.49997 244.69998 387.69998L244.69998 387.69998L248.89998 321.3L244.69998 179.59999C 244.69998 175.7 241.69998 172.7 237.79999 172.7z" stroke="none" fill="#000000" fill-rule="nonzero" />
</g>
</symbol>
</svg>

<?xml version="1.0" standalone="no"?>
        <!DOCTYPE svg PUBLIC "-//W3C//DTD SVG 1.1//EN" 
        "http://www.w3.org/Graphics/SVG/1.1/DTD/svg11.dtd">  <svg xmlns="http://www.w3.org/2000/svg" viewBox="0 0 640 512"><!--! Font Awesome Free 6.1.1 by @fontawesome - https://fontawesome.com License - https://fontawesome.com/license/free (Icons: CC BY 4.0, Fonts: SIL OFL 1.1, Code: MIT License) Copyright 2022 Fonticons, Inc. --><path d="M111.4 256.3l5.8 65-5.8 68.3c-.3 2.5-2.2 4.4-4.4 4.4s-4.2-1.9-4.2-4.4l-5.6-68.3 5.6-65c0-2.2 1.9-4.2 4.2-4.2 2.2 0 4.1 2 4.4 4.2zm21.4-45.6c-2.8 0-4.7 2.2-5 5l-5 105.6 5 68.3c.3 2.8 2.2 5 5 5 2.5 0 4.7-2.2 4.7-5l5.8-68.3-5.8-105.6c0-2.8-2.2-5-4.7-5zm25.5-24.1c-3.1 0-5.3 2.2-5.6 5.3l-4.4 130 4.4 67.8c.3 3.1 2.5 5.3 5.6 5.3 2.8 0 5.3-2.2 5.3-5.3l5.3-67.8-5.3-130c0-3.1-2.5-5.3-5.3-5.3zM7.2 283.2c-1.4 0-2.2 1.1-2.5 2.5L0 321.3l4.7 35c.3 1.4 1.1 2.5 2.5 2.5s2.2-1.1 2.5-2.5l5.6-35-5.6-35.6c-.3-1.4-1.1-2.5-2.5-2.5zm23.6-21.9c-1.4 0-2.5 1.1-2.5 2.5l-6.4 57.5 6.4 56.1c0 1.7 1.1 2.8 2.5 2.8s2.5-1.1 2.8-2.5l7.2-56.4-7.2-57.5c-.3-1.4-1.4-2.5-2.8-2.5zm25.3-11.4c-1.7 0-3.1 1.4-3.3 3.3L47 321.3l5.8 65.8c.3 1.7 1.7 3.1 3.3 3.1 1.7 0 3.1-1.4 3.1-3.1l6.9-65.8-6.9-68.1c0-1.9-1.4-3.3-3.1-3.3zm25.3-2.2c-1.9 0-3.6 1.4-3.6 3.6l-5.8 70 5.8 67.8c0 2.2 1.7 3.6 3.6 3.6s3.6-1.4 3.9-3.6l6.4-67.8-6.4-70c-.3-2.2-2-3.6-3.9-3.6zm241.4-110.9c-1.1-.8-2.8-1.4-4.2-1.4-2.2 0-4.2.8-5.6 1.9-1.9 1.7-3.1 4.2-3.3 6.7v.8l-3.3 176.7 1.7 32.5 1.7 31.7c.3 4.7 4.2 8.6 8.9 8.6s8.6-3.9 8.6-8.6l3.9-64.2-3.9-177.5c-.4-3-2-5.8-4.5-7.2zm-26.7 15.3c-1.4-.8-2.8-1.4-4.4-1.4s-3.1.6-4.4 1.4c-2.2 1.4-3.6 3.9-3.6 6.7l-.3 1.7-2.8 160.8s0 .3 3.1 65.6v.3c0 1.7.6 3.3 1.7 4.7 1.7 1.9 3.9 3.1 6.4 3.1 2.2 0 4.2-1.1 5.6-2.5 1.7-1.4 2.5-3.3 2.5-5.6l.3-6.7 3.1-58.6-3.3-162.8c-.3-2.8-1.7-5.3-3.9-6.7zm-111.4 22.5c-3.1 0-5.8 2.8-5.8 6.1l-4.4 140.6 4.4 67.2c.3 3.3 2.8 5.8 5.8 5.8 3.3 0 5.8-2.5 6.1-5.8l5-67.2-5-140.6c-.2-3.3-2.7-6.1-6.1-6.1zm376.7 62.8c-10.8 0-21.1 2.2-30.6 6.1-6.4-70.8-65.8-126.4-138.3-126.4-17.8 0-35 3.3-50.3 9.4-6.1 2.2-7.8 4.4-7.8 9.2v249.7c0 5 3.9 8.6 8.6 9.2h218.3c43.3 0 78.6-35 78.6-78.3.1-43.6-35.2-78.9-78.5-78.9zm-296.7-60.3c-4.2 0-7.5 3.3-7.8 7.8l-3.3 136.7 3.3 65.6c.3 4.2 3.6 7.5 7.8 7.5 4.2 0 7.5-3.3 7.5-7.5l3.9-65.6-3.9-136.7c-.3-4.5-3.3-7.8-7.5-7.8zm-53.6-7.8c-3.3 0-6.4 3.1-6.4 6.7l-3.9 145.3 3.9 66.9c.3 3.6 3.1 6.4 6.4 6.4 3.6 0 6.4-2.8 6.7-6.4l4.4-66.9-4.4-145.3c-.3-3.6-3.1-6.7-6.7-6.7zm26.7 3.4c-3.9 0-6.9 3.1-6.9 6.9L227 321.3l3.9 66.4c.3 3.9 3.1 6.9 6.9 6.9s6.9-3.1 6.9-6.9l4.2-66.4-4.2-141.7c0-3.9-3-6.9-6.9-6.9z"/></svg>
